X: 90
T: Eavesdropper
M:6/8
L:1/8
C:Trad.
R:Jig
K:G
"G"D2B BAG | Bdd dBG | "C"cee "G"dBG |"D" BAA "C"AGE |
"G"DBB BAG | Bdd dBG | "C"cee "G"dBG | "D"AGF "G"G2 :|
|: d | "G"gfg "D"afd |"C" efg "G"d2 B |"C" cee "G"dBG |"D" BAA A2 d |
"G"gab "D"afd |"C" efg "G"dBG | "C"cee "G"dBG |"D" AGF"G" G2  :|


